icons/src/svg/link.svg

<svg width="32" height="32" viewBox="0 0 32 32" fill="none" xmlns="http://www.w3.org/2000/svg">
<path fill-rule="evenodd" clip-rule="evenodd" d="M14.5856 10.3437C14.195 9.95322 14.195 9.32005 14.5856 8.92953L17.414 6.1011C19.7571 3.75797 23.5561 3.75797 25.8993 6.1011C28.2424 8.44425 28.2424 12.2432 25.8993 14.5864L23.0708 17.4148C22.6803 17.8053 22.0472 17.8053 21.6566 17.4148C21.2661 17.0243 21.2661 16.3911 21.6566 16.0006L24.4851 13.1722C26.0472 11.6101 26.0472 9.07742 24.4851 7.51533C22.923 5.95323 20.3903 5.95323 18.8282 7.51533L15.9998 10.3437C15.6093 10.7342 14.9761 10.7342 14.5856 10.3437ZM17.4138 21.657C17.8044 22.0476 17.8044 22.6807 17.4138 23.0713L14.5854 25.8997C12.2423 28.2428 8.44328 28.2428 6.10013 25.8997C3.75699 23.5565 3.75699 19.7576 6.10013 17.4144L8.92856 14.586C9.31909 14.1955 9.95225 14.1955 10.3428 14.586C10.7333 14.9765 10.7333 15.6097 10.3428 16.0002L7.51435 18.8286C5.95225 20.3907 5.95225 22.9234 7.51435 24.4855C9.07644 26.0476 11.6091 26.0476 13.1712 24.4855L15.9996 21.657C16.3902 21.2665 17.0233 21.2665 17.4138 21.657ZM9.63651 20.9502C9.24607 21.3406 9.24607 21.9736 9.63651 22.3641C10.0269 22.7545 10.66 22.7545 11.0504 22.3641L22.3641 11.0504C22.7545 10.6599 22.7545 10.0269 22.3641 9.6365C21.9737 9.24606 21.3407 9.24606 20.9502 9.6365L9.63651 20.9502Z" fill="#0D0F13"/>
</svg>

<svg fill="none" xmlns="http://www.w3.org/2000/svg" viewBox="0 0 32 32">
  <path fill-rule="evenodd" clip-rule="evenodd" d="M14.586 10.343a1 1 0 0 1 0-1.414l2.828-2.828a6 6 0 0 1 8.485 8.485l-2.828 2.828A1 1 0 0 1 21.657 16l2.828-2.828a4 4 0 0 0-5.657-5.657L16 10.343a1 1 0 0 1-1.414 0Zm2.828 11.314a1 1 0 0 1 0 1.414l-2.829 2.828A6 6 0 0 1 6.1 17.414l2.829-2.828A1 1 0 0 1 10.343 16l-2.829 2.828a4 4 0 0 0 5.657 5.657L16 21.657a1 1 0 0 1 1.414 0Zm-7.777-.707a1 1 0 1 0 1.413 1.414L22.364 11.05a1 1 0 0 0-1.414-1.414L9.637 20.95Z" fill="currentColor"/>
</svg>
